X:1
T: The Yellow Flail
C:
R:Jig
Q:180
K:G
M:6/8
L:1/16
dc|:B2A2G2 G2F2G2|D4E2 F2E2F2|G2A2G2 G2A2B2|c2A2G2 F2G2A2|
c2A2G2 F2G2A2|B2c2B2 B2A2G2|A2B2A2 A2B2c2|d2c2A2 A2G2F2|1G6 G4dc:|2G6 G4D2|
|:G2F2G2 B2A2G2|G2F2G2 A2F2D2|G2F2G2 B2G2B2|c4A2 F4A2|
G2F2G2 B2A2G2|F2G2A2 A2B2c2|d2c2A2 A2G2F2|G6 G4D2:|
|:F4A2 B4c2|d2e2d2 d4c2|B2A2G2 F2G2A2|c2A2G2 F4A2|
B2c2B2 B2A2G2|A2B2A2 A2B2c2|d2c2A2 A2G2F2|1G6 G4D2:|2G6 G4||
